X: 020575
T: Bright Skies
S: Treoir 
C: Noel Strange
Z: B.Black
M: C|
Q: 340
L: 1/8
R: hornpipe 
K: G
Bc | dGBG dGBG | DGBd gdBG | ec c2 dB B2 |ceag faef |
gGBG dGBG | DGBd gdBG | ec c2 dB B2 | cdfa g2 :|
Bc | dgfg egfg | afdf gdBd | ec c2 dB B2 |ceag faef |
gdBG DGBd | ecag faef | gG G2 DG G2 |(3efg fa g2 :|
